src/status/24/clipit-trayicon.svg

<svg width="24" height="24" version="1.1" xmlns="http://www.w3.org/2000/svg">
 <defs>
  <style id="current-color-scheme" type="text/css">.ColorScheme-Text { color:#363636; } .ColorScheme-Highlight { color:#4285f4; }</style>
 </defs>
 <path class="ColorScheme-Text" d="m12 4c-1.1046 0-2 0.89543-2 2h-2v0.00586c-1.113 0.032581-2 0.93345-2 2.0547v8.8789c0 1.142 0.91853 2.0605 2.0605 2.0605h7.8789c1.142 0 2.0605-0.91853 2.0605-2.0605v-8.8789c0-1.142-0.91853-2.0605-2.0605-2.0605h-1.9394c0-0.138-0.0053-0.27625-0.03125-0.40625-0.19615-0.93036-1.0179-1.5956-1.9688-1.5938zm-0.01172 1c0.0039-2.29e-5 0.0078-2.29e-5 0.01172 0 0.414 0 0.75425 0.266 0.90625 0.625 0.05689 0.11716 0.08882 0.24486 0.09375 0.375-6.1e-5 0.88813-1.0716 1.3352-1.7031 0.71094-0.63157-0.62426-0.19666-1.7005 0.69141-1.7109zm-3.9883 2h2v1s-1 0-1 1h6c0-0.75-0.56275-0.953-0.84375-1h-0.15625v-1h2c0.554 0 1 0.446 1 1v9c0 0.554-0.446 1-1 1h-8c-0.554 0-1-0.446-1-1v-9c0-0.554 0.446-1 1-1z" fill="currentColor"/>
</svg>

<svg xmlns="http://www.w3.org/2000/svg" width="24" height="24">
    <defs>
        <style id="current-color-scheme" type="text/css">
            .ColorScheme-Highlight{color:#a0b6cb}
        </style>
    </defs>
    <path fill="currentColor" d="M12 4a2 2 0 0 0-2 2H8v.006c-1.113.032-2 .933-2 2.055v8.878C6 18.081 6.919 19 8.06 19h7.88c1.141 0 2.06-.919 2.06-2.06V8.06C18 6.92 17.08 6 15.94 6H14c0-.138-.005-.276-.031-.406A2.008 2.008 0 0 0 12 4zm-.012 1A1 1 0 0 1 12 5c.414 0 .754.266.906.625A.94.94 0 0 1 13 6c0 .888-1.072 1.335-1.703.71-.632-.623-.197-1.7.691-1.71zM8 7h2v1S9 8 9 9h6c0-.75-.563-.953-.844-1H14V7h2c.554 0 1 .446 1 1v9c0 .554-.446 1-1 1H8c-.554 0-1-.446-1-1V8c0-.554.446-1 1-1z" style="color:#050505;opacity:.7"/>
</svg>
